X:7784
T:Untitled Jig #4
O:england
M:6/8
L:1/8
Q:3/8=180
S:"Teddy Boy" Houle
R:jig
K:E
b2 e g2 e | gbe gbe | Bdf/2g/2 agf | e2 g |
b2 e g2 e | gbe gbe | Bdf/2g/2 agf |1 efe e3 :|2 efe e2 ||
f/2g/2 | agb agf | ecf ecA | =dBG EGB | fec A2 f/2g/2 |
agb agf | ecf ece | f2 e =dcB | AAA A2 :||


